icon-svg/hino.svg

<svg xmlns="http://www.w3.org/2000/svg" fill="#44739e" viewBox="0 0 24 24"><path d="M13.781 19.038c0 .106-.044.139-.128.139-.128 0-1.324-.747-1.444-.747h-1.076v2.1h1.075v-.87a.129.129 0 0 1 .136-.141c.143 0 .412.1 1.255.7.189.135.182.24.182.313h1.07v-2.1h-1.07zm4.703-.693h-1.791a.9.9 0 0 0-1.012.911v.509c0 .552.236.776.8.869a7.56 7.56 0 0 0 2.221 0c.56-.093.8-.317.8-.869v-.509a.9.9 0 0 0-1.018-.911m-.054 1.368a.338.338 0 0 1-.338.336h-1.023a.336.336 0 0 1-.338-.336v-.463a.338.338 0 0 1 .338-.337h1.023a.338.338 0 0 1 .338.337ZM13.694 3.938c-1.1.044-.925.581-.212.819S17.448 6.04 17.7 8.034c.092.739-1.27.845-5.7.845-4.447 0-5.789-.106-5.7-.845C6.552 6.04 9.8 5 10.518 4.757s.884-.775-.211-.819C8.985 3.885 3 5.227 3 9.725c0 4.48 5.985 5.84 7.307 5.787 1.095-.044.924-.582.211-.82S6.552 13.409 6.3 11.416c-.092-.74 1.278-.855 5.7-.846s5.789.106 5.7.846c-.249 1.994-3.5 3.039-4.215 3.276s-.884.776.212.82C15.015 15.565 21 14.205 21 9.725c0-4.498-5.985-5.84-7.306-5.787m-1.669 5.186c5.731 0 5.391-.1 5.979-.358.126-.056.206-.069.252-.039s.107.069.213.13.161.138.008.191a52.8 52.8 0 0 1-6.452.244 52.9 52.9 0 0 1-6.453-.244c-.152-.054-.1-.13.008-.191s.168-.1.214-.13.126-.017.251.039c.588.259.249.358 5.98.358m8.507.715a4.58 4.58 0 0 0-1.2-2.645c-.122-.13-.2-.092-.107.068a4.512 4.512 0 0 1 .832 2.663c-.069 1.435-1.179 4.142-6.082 5.174-.145.031-.489 0-.008-.137s3.719-.861 5.1-3.2c1.3-2.2-.756-1.954-1.786-1.977-.932-.021-3.772 0-5.075 0h-.359c-1.3 0-4.143-.021-5.075 0-1.03.023-3.083-.221-1.785 1.977 1.379 2.336 4.617 3.06 5.1 3.2s.138.168-.007.137c-4.9-1.032-6.014-3.739-6.082-5.174a4.514 4.514 0 0 1 .831-2.663c.092-.16.016-.2-.106-.069a4.587 4.587 0 0 0-1.2 2.646c-.009.134-.109.37-.124.019a4.834 4.834 0 0 1 2.136-3.8A9.526 9.526 0 0 1 9.8 4.292c.44-.076.891-.038.057.182-3.388.9-4.483 2.347-5.116 3.66s.616 1.312 1.439 1.341c.8.028 3.728.038 5.845.038s5.043-.01 5.844-.038c.824-.029 2.069-.029 1.437-1.341s-1.728-2.764-5.116-3.66c-.833-.22-.383-.258.057-.182a9.526 9.526 0 0 1 4.273 1.763 4.833 4.833 0 0 1 2.136 3.8c-.015.354-.115.118-.124-.016M7.017 18.78a.268.268 0 0 1-.267.291h-.9a.268.268 0 0 1-.267-.291v-.35h-.974v2.1h.971v-.413a.268.268 0 0 1 .267-.291h.9a.268.268 0 0 1 .267.291v.413h1.1v-2.1h-1.1zm2.033-.35h1.151v2.099H9.05Z"/></svg>

<?xml version="1.0" encoding="UTF-8"?>
<svg width="24px" fill="#44739e" height="24px" viewBox="0 0 24 24" version="1.1" xmlns="http://www.w3.org/2000/svg" xmlns:xlink="http://www.w3.org/1999/xlink">
            <path d="m 13.781,19.038 v 0 c 0,0.106 -0.044,0.139 -0.128,0.139 -0.128,0 -1.324,-0.747 -1.444,-0.747 h -1.076 v 2.1 h 1.075 v -0.87 a 0.129,0.129 0 0 1 0.136,-0.141 c 0.143,0 0.412,0.1 1.255,0.7 0.189,0.135 0.182,0.24 0.182,0.313 v 0 h 1.07 v -2.1 h -1.07 z m 4.703,-0.693 h -1.791 a 0.9,0.9 0 0 0 -1.012,0.911 v 0.509 c 0,0.552 0.236,0.776 0.8,0.869 a 7.561,7.561 0 0 0 2.221,0 c 0.56,-0.093 0.8,-0.317 0.8,-0.869 v -0.509 a 0.9,0.9 0 0 0 -1.018,-0.911 z m -0.054,1.368 a 0.338,0.338 0 0 1 -0.338,0.336 H 17.069 A 0.336,0.336 0 0 1 16.731,19.713 V 19.25 a 0.338,0.338 0 0 1 0.338,-0.337 h 1.023 A 0.338,0.338 0 0 1 18.43,19.25 Z M 13.694,3.938 C 12.594,3.982 12.769,4.519 13.482,4.757 14.195,4.995 17.448,6.04 17.7,8.034 17.792,8.773 16.43,8.879 12,8.879 7.553,8.879 6.211,8.773 6.3,8.034 6.552,6.04 9.8,5 10.518,4.757 11.236,4.514 11.402,3.982 10.307,3.938 8.985,3.885 3,5.227 3,9.725 c 0,4.48 5.985,5.84 7.307,5.787 1.095,-0.044 0.924,-0.582 0.211,-0.82 C 9.805,14.454 6.552,13.409 6.3,11.416 6.208,10.676 7.578,10.561 12,10.57 c 4.422,0.009 5.789,0.106 5.7,0.846 -0.249,1.994 -3.5,3.039 -4.215,3.276 -0.715,0.237 -0.884,0.776 0.212,0.82 C 15.015,15.565 21,14.205 21,9.725 21,5.227 15.015,3.885 13.694,3.938 Z m -1.669,5.186 c 5.731,0 5.391,-0.1 5.979,-0.358 0.126,-0.056 0.206,-0.069 0.252,-0.039 0.046,0.03 0.107,0.069 0.213,0.13 0.106,0.061 0.161,0.138 0.008,0.191 A 52.842,52.842 0 0 1 12.025,9.292 52.851,52.851 0 0 1 5.572,9.048 C 5.42,8.994 5.472,8.918 5.58,8.857 5.688,8.796 5.748,8.757 5.794,8.727 5.84,8.697 5.92,8.71 6.045,8.766 v 0 c 0.588,0.259 0.249,0.358 5.98,0.358 z m 8.507,0.715 a 4.579,4.579 0 0 0 -1.2,-2.645 c -0.122,-0.13 -0.2,-0.092 -0.107,0.068 a 4.512,4.512 0 0 1 0.832,2.663 c -0.069,1.435 -1.179,4.142 -6.082,5.174 -0.145,0.031 -0.489,0 -0.008,-0.137 0.481,-0.137 3.719,-0.861 5.1,-3.2 1.3,-2.2 -0.756,-1.954 -1.786,-1.977 -0.932,-0.021 -3.772,0 -5.075,0 h -0.359 c -1.3,0 -4.143,-0.021 -5.075,0 -1.03,0.023 -3.083,-0.221 -1.785,1.977 1.379,2.336 4.617,3.06 5.1,3.2 0.483,0.14 0.138,0.168 -0.007,0.137 C 5.18,14.067 4.066,11.36 3.998,9.925 A 4.514,4.514 0 0 1 4.829,7.262 C 4.921,7.102 4.845,7.062 4.723,7.193 a 4.587,4.587 0 0 0 -1.2,2.646 C 3.514,9.973 3.414,10.209 3.399,9.858 A 4.834,4.834 0 0 1 5.535,6.058 9.526,9.526 0 0 1 9.8,4.292 c 0.44,-0.076 0.891,-0.038 0.057,0.182 -3.388,0.9 -4.483,2.347 -5.116,3.66 -0.633,1.313 0.616,1.312 1.439,1.341 0.8,0.028 3.728,0.038 5.845,0.038 2.117,0 5.043,-0.01 5.844,-0.038 C 18.693,9.446 19.938,9.446 19.306,8.134 18.674,6.822 17.578,5.37 14.19,4.474 13.357,4.254 13.807,4.216 14.247,4.292 a 9.526,9.526 0 0 1 4.273,1.763 4.833,4.833 0 0 1 2.136,3.8 C 20.641,10.209 20.541,9.973 20.532,9.839 Z M 7.017,18.78 A 0.268,0.268 0 0 1 6.75,19.071 H 5.85 A 0.268,0.268 0 0 1 5.583,18.78 V 18.43 H 4.609 v 2.1 H 5.58 v -0.413 a 0.268,0.268 0 0 1 0.267,-0.291 h 0.9 a 0.268,0.268 0 0 1 0.267,0.291 v 0.413 h 1.1 v -2.1 h -1.1 z M 9.0500002,18.43 H 10.201 v 2.099 H 9.0500002 Z"/>

</svg>
